X: 1874
T: Top Yatağın Önü Gayfe
C: Selahattin Tekakçe
O: Turkey
F: http://compmusic.upf.edu/node/140
N: tahir--turku--aksak--top_yatagin--aydin
N: makam= tahir
N: form= turku
N: usul= aksak = 9/8
M: 9/8
L: 1/16
K: C _2/4B ^3/4f  
Q: 1/4=108
%%MIDI tuningsystem comma53
a2aaaee3dgf{a}g4d2ed cBcBBAA4 | a2a2aee3d gf{a}g4d2edcBcBBAA4  | 
w:  ARANAĞME  |   | 
z22  | fgabgba4abc'3bac'_3/4b3/2a/g2 | \
w:  |  Top  *  ya *  ta *  ğın  ö *  nü  *  gay *  fe    | 
fgabgba4abc'3bac'_3/4b3/2a/g2  | 
w:  Top  *  ya *  ta *  ğın  ö *  nü  *  gay *  fe    | 
z30  | a2aaaee3dgf{a}g4d2_7/8ed cBcBBAA4 | 
w:  |  Ah  o tur muş *  lar  *  *  *  *  *  tay fe  *  *  *  tay *  *  *  fe    | 
a2aaaee3d gf{a}g4d2_7/8edcBcBBAA4  | z22  | 
w:  Ah  o tur muş *  lar  *  *  *  *  *  tay fe  *  *  *  tay *  *  *  fe    |  | 
fgabgba4abc'3bac'_3/4b3/2a/g2 | fgabgba4abc'3bac'_3/4b3/2a/g2  | 
w:  Be *  yaz  *  fin *  can  si *  yah  *  gay *  fe    |  Be *  yaz  *  fin *  can  si *  yah  *  gay *  fe    | 
z30  | a2aaaee3dgf{a}g4d2ed cBcBBAA4 | 
w:  |  Ah  ye ter_ ol *  sun  *  *  *  *  *  ye ter_ *  *  *  ol *  *  *  sun    | 
a2a2aee3d gf{a}g4d2edcBcBBAA4  | a2aaaee3dgf{a}g4d2ed cBcBBAA4 | 
w:  Kız  dil le *  rin  *  *  *  *  *  şe ker_ *  *  *  ol *  *  *  sun    |  Ah  ye ter_ ol *  sun  *  *  *  *  *  ye ter_ *  *  *  ol *  *  *  sun    | 
a2a2aee3d gf{a}g4d2edcBcBBAA4  | z30  | \
w:  Kız  dil le *  rin  *  *  *  *  *  şe ker_ *  *  *  ol *  *  *  sun    |  | 
a2aaaee3dgf{a}g4d2ed cBcBBAA4 | 
w:  ARANAĞME  | 
a2a2aee3d gf{a}g4d2edcBcBBAA4  | z22  | \
w:   |  | 
fgabgba4abc'3bac'_3/4b3/2a/g2 | 
w:  Top  *  ya *  ta *  ğın  ö *  nü  *  gay *  fe    | 
fgabgba4abc'3bac'_3/4b3/2a/g2  | z30  | \
w:  Top  *  ya *  ta *  ğın  ö *  nü  *  gay *  fe    |  | 
a2aaaee3dgf{a}g4d2_7/8ed cBcBBAA4 | 
w:  Ah  o tur muş *  lar  *  *  *  *  *  tay fe  *  *  *  tay *  *  *  fe    | 
a2aaaee3d gf{a}g4d2_7/8edcBcBBAA4  | z22  | 
w:  Ah  o tur muş *  lar  *  *  *  *  *  tay fe  *  *  *  tay *  *  *  fe    |  | 
fgabgba4abc'3bac'_3/4b3/2a/g2 | fgabgba4abc'3bac'_3/4b3/2a/g2  | 
w:  Be *  yaz  *  fin *  can  si *  yah  *  gay *  fe    |  Be *  yaz  *  fin *  can  si *  yah  *  gay *  fe    | 
z30  | a2aaaee3dgf{a}g4d2ed cBcBBAA4 | 
w:  |  Ah  ye ter_ ol *  sun  *  *  *  *  *  ye ter_ *  *  *  ol *  *  *  sun    | 
a2a2aee3d gf{a}g4d2edcBcBBAA4  | a2aaaee3dgf{a}g4d2ed cBcBBAA4 | 
w:  Kız  dil le *  rin  *  *  *  *  *  şe ker_ *  *  *  ol *  *  *  sun    |  Ah  ye ter_ ol *  sun  *  *  *  *  *  ye ter_ *  *  *  ol *  *  *  sun    | 
a2a2aee3d gf{a}g4d2edcBcBBAA4  | |


